!!!!SEGMENT:01Dotou_c.krn
!!!OTL: 怒濤
!!!OPR:Eiga Banso Kyokusyu,jidai-geki,zenpen
!!!YOY:1929
!!!ONB:Kakutou
**kern
*clefG2
*k[]
*C:
*M2/4
=1
8bL
8dd
8ee
8ddJ
=2
16bLL
16ee
16ee
16eeJJ
16eeLL
16ee
16ee
16eeJJ
=3
8eeL
8gg
8aa
8ggJ
=4
16eeLL
16aa
16aa
16aaJJ
16aaLL
16aa
16aa
16aaJJ
=5
16ddLL
16bb
16ddd
16bbJJ
16ddLL
16aa
16bb
16aaJJ
=6
16ddLL
16gg
16gg
16ggJJ
4aa
=7
16ddLL
16bb
16ddd
16bbJJ
16ddLL
16aa
16bb
16aaJJ
=8
16ddLL
16bb
16ddd
16bbJJ
16ddLL
16aa
16bb
16aaJJ
=9
16ddLL
16bb
16ddd
16bbJJ
16ddLL
16aa
16bb
16aaJJ
=10
16ddLL
16gg
16aa
16ggJJ
16ddLL
16ee
16ff
16eeJJ
=11
16dLL
16dd
16ee
16ddJJ
16dLL
16cc
16dd-X
16ccJJ
=12
16dLL
16b-X
(16b-
16aJJ)
(16aLL
16g
16e-X
16dJJ)
=13
16ALL
16f
(16f
16enJJ)
(16eLL
16d
16B-X
16AJJ)
=14
(16ALL
16f)
(16f
16eJJ)
(16eLL
16d)
(16B-X
16AJJ)
=15
16ALL
16f
(16f
16eJJ)
16ALL
16f
(16f
16eJJ)
=16
16ALL
16f
16f
16fJJ
8eL
8fJ
=17
16ALL
16A
16A
16A
16A
16A
16A
16AJJ
=18
16ALL
16A
16A
16A
16A
16A
16A
16AJJ
=19!|:
(16bLL
32ccL
32bJJJ)
16ALL
16dJJ
(16aLL
32bL
32aJJJ)
16ALL
16dJJ
=20
(16gLL
32aL
32gJ)
16A
16dJJ
(16eLL
32fL
32eJJJ)
16ALL
16dJJ
=21:|!
16BLL
16d
16d
16dJJ
16dLL
16d
16d
16dJJ
=22
16dLL
16d
16d
16dJJ
16dLL
16d
16d
16dJJ
*
=23!|:
16eLL
16d
16d
16dJJ
16dLL
16d
16d
16dJJ
=24
16cLL
16d
16d
16dJJ
16dLL
16d
16d
16dJJ
=25:|!
16ALL
16cc
16A
16ccJJ
16ALL
16cc
16A
16ccJJ
=26
16ALL
16cc
16A
16ccJJ
16ALL
16cc
16A
16ccJJ
=27
8dL
8ddJ
16ddLL
16dd
16dd
16gJJ
=28
8dL
8ddJ
==
*-
!!!ENC: Yukiko Yoden
!!!END: 2023/06/11
